lib/brands/logos/astm-international.svg

<svg xmlns="http://www.w3.org/2000/svg" fill="none" aria-hidden="true" viewBox="0 0 106 112"><g id="ASTM International"><g id="Vector"><path fill="#2C5B8D" fill-rule="evenodd" d="M9.81686 104.093C10.0398 102.528 8.92184 101.856 7.58031 101.856C6.46237 101.856 5.34443 102.528 5.34443 103.869C5.34443 104.764 5.79161 105.211 6.68596 105.434H7.13314C8.02749 105.658 8.92184 105.881 8.92184 106.775C8.92184 107.894 7.8039 108.117 6.90955 108.117C5.79161 108.117 5.12018 107.67 5.12018 106.552H4.44942C4.44942 108.117 5.56736 108.788 6.90955 108.788C9.14543 108.788 9.36968 107.447 9.36968 106.775C9.36968 105.658 8.69826 105.434 7.8039 104.987L6.90955 104.764C6.46237 104.764 6.01454 104.54 6.01454 103.868C6.01454 102.751 6.6853 102.527 7.58031 102.527C8.69826 102.527 9.36968 102.751 9.36968 104.093H9.81686V104.093ZM11.1577 104.316H12.0527L11.382 107.447V107.894C11.382 108.565 11.8292 108.565 12.2763 108.565H12.7235L12.9478 108.118H12.2763C12.0527 108.118 11.8292 108.118 11.8292 107.894C11.8292 107.671 11.8292 107.671 12.0527 107.447L12.7235 104.316H13.6185V103.869H12.7235L12.9478 102.528H12.5006L12.277 103.869H11.3826L11.1577 104.316ZM17.8674 106.105C17.6438 106.329 16.9723 106.329 16.7494 106.329C16.0787 106.329 14.96 106.329 14.96 107.447C14.96 108.118 15.4072 108.342 15.8544 108.342C16.9723 108.342 17.4202 107.671 17.6438 106.776L17.8674 106.105ZM14.96 105.211C15.1836 104.316 15.8544 103.869 16.9723 103.869C17.6431 103.869 18.5381 104.094 18.5381 104.765C18.5381 105.212 18.3145 105.882 18.3145 106.329C18.0909 107.448 18.0909 107.672 18.0909 107.895C18.0909 108.119 18.0909 108.119 18.3145 108.119H18.5381V108.566H17.8674C17.6438 108.566 17.4202 108.566 17.4202 108.119V107.895C17.1966 108.342 16.5252 108.789 15.8544 108.789C14.96 108.789 14.2893 108.342 14.2893 107.449C14.2893 106.553 15.1843 106.106 16.0787 105.883H17.4202C17.8674 105.659 18.0909 105.436 18.0909 104.988C18.0909 104.316 17.4202 104.316 16.973 104.316C16.3022 104.316 15.6315 104.541 15.6315 105.212H14.96V105.211ZM20.7747 103.869H21.4454L21.2218 104.765C21.669 104.094 22.1162 103.869 23.0112 103.869C23.682 103.869 24.3527 104.094 24.3527 104.988V105.659L23.682 108.566H23.0112L23.682 105.659V104.988C23.682 104.541 23.2348 104.316 22.787 104.316C21.8926 104.316 21.2218 104.988 20.9983 106.105L20.3268 108.565H19.8797L20.7747 103.869ZM27.7066 108.342C26.8115 108.342 26.365 107.671 26.365 106.776C26.365 105.659 27.0358 104.316 28.3773 104.316C29.2717 104.316 29.7189 104.764 29.7189 105.658C29.7195 106.776 28.8252 108.342 27.7066 108.342ZM31.061 102.081H30.3903L29.9431 104.764C29.7195 104.093 29.0481 103.869 28.3773 103.869C26.8115 103.869 25.6936 105.434 25.6936 106.776C25.6936 107.894 26.365 108.789 27.483 108.789C28.3773 108.789 28.8245 108.342 29.2717 107.672L29.0481 108.566H29.7189L31.061 102.081ZM34.8627 106.776C34.6391 107.672 34.1919 108.342 33.2976 108.342C32.6268 108.342 32.1796 108.118 32.1796 107.447C32.1796 106.329 33.2976 106.329 33.9684 106.329C34.4155 106.329 34.8627 106.329 35.0863 106.105L34.8627 106.776ZM32.8498 105.211C32.8498 104.541 33.5205 104.316 34.1913 104.316C34.6385 104.316 35.3092 104.316 35.3092 104.988C35.3092 105.435 35.0856 105.659 34.6378 105.882H33.2963C32.4013 106.106 31.5069 106.553 31.5069 107.448C31.5069 108.342 32.1783 108.789 33.072 108.789C33.7434 108.789 34.4135 108.342 34.6371 107.894V108.118C34.6371 108.565 34.8607 108.565 35.3086 108.565H35.7557V108.118H35.5321C35.3086 108.118 35.3086 108.118 35.3086 107.894C35.3086 107.671 35.3086 107.447 35.5321 106.329C35.7557 105.882 35.7557 105.211 35.7557 104.764C35.7557 104.093 34.8614 103.869 34.1906 103.869C33.2963 103.869 32.4013 104.316 32.1783 105.211H32.8498V105.211ZM38.2172 103.869H38.6644L38.4408 104.988C38.6644 104.316 39.3358 103.869 40.0066 103.869H40.4537L40.2301 104.316H40.0066C38.8886 104.316 38.4408 105.212 38.2172 106.106L37.77 108.566H37.0986L38.2172 103.869ZM42.9132 108.342C42.0189 108.342 41.5717 107.671 41.5717 106.776C41.5717 105.659 42.2431 104.316 43.5846 104.316C44.479 104.316 44.9262 104.764 44.9262 105.658C44.9255 106.776 44.2547 108.342 42.9132 108.342ZM46.2677 102.081H45.5969L45.1491 104.764C44.9255 104.093 44.2547 103.869 43.584 103.869C42.0182 103.869 40.9002 105.434 40.9002 106.776C40.9002 107.894 41.571 108.789 42.689 108.789C43.584 108.789 44.0311 108.342 44.4783 107.672L44.2547 108.566H44.9255L46.2677 102.081ZM47.3856 106.999C47.3856 107.895 48.0564 108.342 48.7278 108.342C49.3986 108.342 50.0694 107.894 50.0694 107.447C50.0694 106.775 49.3986 106.552 48.7278 106.329C48.0564 106.105 47.3856 105.882 47.3856 104.988C47.3856 104.094 48.5036 103.869 49.175 103.869C50.0694 103.869 50.9637 104.094 50.9637 105.211H50.2923C50.2923 104.541 49.8451 104.316 49.175 104.316C48.7278 104.316 48.0564 104.316 48.0564 104.988C48.0564 105.435 48.5042 105.659 48.9514 105.882C49.6222 106.106 50.5165 106.329 50.5165 107.224C50.5165 108.342 49.6222 108.789 48.7278 108.789C47.8328 108.789 46.9385 108.342 46.9385 106.999H47.3856ZM54.7654 102.081H55.4361L55.6604 107.894L58.5677 102.081H59.2385L59.685 107.894L62.3687 102.081H63.0395L59.9086 108.565H59.2385L58.7913 102.751L55.884 108.565H55.2139L54.7654 102.081ZM65.0524 108.342C64.1581 108.342 63.7102 107.671 63.7102 106.776C63.7102 105.659 64.3823 104.316 65.7232 104.316C66.6189 104.316 67.0654 104.764 67.0654 105.658C67.0654 106.776 66.3946 108.342 65.0524 108.342ZM65.7225 103.869C64.1581 103.869 63.0388 105.211 63.0388 106.777C63.0388 107.895 63.7096 108.789 65.0518 108.789C66.6175 108.789 67.5119 107.225 67.5119 105.659C67.5119 104.541 66.8418 103.869 65.7225 103.869ZM69.7484 103.869H70.1956L69.972 104.988C70.4192 104.316 70.8677 103.869 71.7614 103.869H71.985V104.316H71.5378C70.6421 104.316 69.972 105.212 69.7484 106.106L69.3012 108.566H68.6305L69.7484 103.869ZM73.7743 102.081H74.4451L72.8793 108.565H72.4321L73.7743 102.081ZM76.9052 108.342C76.0109 108.342 75.7866 107.671 75.7866 106.776C75.7866 105.659 76.4587 104.316 77.7996 104.316C78.4703 104.316 78.9169 104.764 78.9169 105.658C78.9169 106.776 78.2461 108.342 76.9052 108.342ZM80.4826 102.081H79.8119L79.1411 104.764C78.9162 104.093 78.469 103.869 77.7989 103.869C76.0109 103.869 75.1152 105.434 75.1152 106.776C75.1152 107.894 75.786 108.789 76.9046 108.789C77.7989 108.789 78.2454 108.342 78.6926 107.672L78.469 108.566H78.9162L80.4826 102.081ZM81.3777 103.869H81.8248L82.272 107.894L84.285 103.869H84.9557L85.1787 107.894L87.1916 103.869H87.8624L85.4022 108.565H84.7321L84.5086 104.764L82.4956 108.565H81.8248L81.3777 103.869ZM89.6518 102.975H90.3225L90.5461 102.081H89.8753L89.6518 102.975ZM88.5331 108.565H88.9803L90.0989 103.869H89.4282L88.5331 108.565ZM93.0056 108.342C92.1112 108.342 91.6634 107.671 91.6634 106.776C91.6634 105.659 92.3355 104.316 93.6763 104.316C94.572 104.316 95.0185 104.764 95.0185 105.658C95.0185 106.776 94.3471 108.342 93.0056 108.342ZM96.3601 102.081H95.9129L95.2421 104.764C95.0185 104.093 94.5713 103.869 93.6763 103.869C92.1119 103.869 91.2162 105.434 91.2162 106.776C91.2162 107.894 91.6634 108.789 93.0056 108.789C93.8999 108.789 94.3464 108.342 94.5713 107.672H94.7949L94.5713 108.566H95.0185L96.3601 102.081ZM97.9258 105.882C98.1494 104.988 98.8202 104.316 99.7152 104.316C100.386 104.316 101.056 104.765 101.056 105.659V105.882H97.9258ZM101.503 106.329V105.658C101.503 104.541 100.832 103.869 99.7152 103.869C98.1494 103.869 97.2551 105.211 97.2551 106.776C97.2551 107.894 97.9258 108.789 99.0431 108.789C100.162 108.789 101.056 108.118 101.28 106.999H100.609C100.385 107.672 99.9381 108.342 99.0431 108.342C98.1488 108.342 97.7022 107.671 97.7022 106.776V106.329H101.503ZM5.79095 83.9659H8.25108L6.6853 92.0164H4.22583L5.79095 83.9659ZM9.81686 83.9659H12.2763L13.6179 88.2147H13.8414L14.7365 83.9659H16.9723L15.4072 92.0164H12.9478L11.382 87.5446L10.487 92.0164H8.02749L9.81686 83.9659ZM19.8797 85.9788H17.4195L17.8674 83.9659H25.0228L24.5757 85.9788H22.3391L20.9976 92.0164H18.5381L19.8797 85.9788ZM25.9179 83.9659H32.8498L32.4026 85.9788H28.1537L27.9301 86.8739H31.7318L31.5082 88.8855H27.483L27.2594 90.0048H31.5082L31.061 92.0164H24.3521L25.9179 83.9659ZM36.2042 85.7553H37.5464C38.2172 85.7553 38.4408 86.2024 38.4408 86.426C38.4408 87.0981 37.9936 87.3217 37.0993 87.3217H35.9813L36.2042 85.7553ZM32.4026 92.0164H34.8627L35.5335 89.1104H36.6514C37.3222 89.1104 37.5464 89.5576 37.5464 89.7812V92.0164H40.0066C39.783 91.5692 39.783 90.6755 39.783 90.0048C39.783 89.1104 39.783 88.439 39.1122 88.2154C40.2302 87.9918 40.9016 87.0981 40.9016 85.9788C40.9016 84.1908 39.783 83.9659 38.2179 83.9659H34.1926L32.4026 92.0164ZM42.6896 83.9659H45.1491L46.7149 88.2147L47.6092 83.9659H50.0694L48.28 92.0164H45.8205L44.2547 87.5446L43.3604 92.0164H40.9009L42.6896 83.9659ZM53.2003 89.1104H54.7654L54.3182 86.649L53.2003 89.1104ZM53.6474 83.9659H56.1076L57.4484 92.0164H54.9883L54.7647 90.8991H52.3052L51.6345 92.0164H48.9508L53.6474 83.9659ZM60.5806 85.9788H58.1192L58.5677 83.9659H65.7225L65.276 85.9788H63.0395L61.6979 92.0164H59.2385L60.5806 85.9788ZM66.6182 83.9659H69.3012L67.5119 92.0164H65.0524L66.6182 83.9659ZM71.985 88.6619C71.985 87.5446 72.4321 85.7546 73.9979 85.7546C74.8923 85.7546 75.3388 86.4254 75.3388 87.0968C75.3388 88.4376 74.668 90.227 73.3258 90.227C72.2086 90.2277 71.985 89.334 71.985 88.6619ZM69.5248 88.6619C69.5248 90.8984 70.867 92.2406 73.1022 92.2406C76.0102 92.2406 77.7989 90.0041 77.7989 87.3204C77.7989 84.8602 76.4581 83.7416 73.9979 83.7416C71.3142 83.7423 69.5248 85.9788 69.5248 88.6619ZM79.8119 83.9659H82.272L83.8365 88.2147L84.7321 83.9659H86.9687L85.4022 92.0164H82.9428L81.3777 87.5446L80.4826 92.0164H78.0225L79.8119 83.9659ZM91.4398 86.649L91.6634 89.1104H90.0989L91.4398 86.649ZM86.073 92.0164H88.5331L89.2039 90.8991H91.8876L92.1125 92.0164H94.5727L93.2305 83.9659H90.7703L86.073 92.0164ZM96.8072 83.9659H99.4903L98.1494 90.0048H101.727L101.28 92.0164H95.2421L96.8072 83.9659Z" clip-rule="evenodd"/><path fill="#2C5B8D" d="M4.44942 79.4941H101.503Z"/><path fill="#2C5B8D" d="M4.44942 95.1479H101.503Z"/><path fill="#2C5B8D" d="M52.5295 2.78947C46.7155 3.01306 40.6773 5.24961 36.2042 7.2619H36.2049V43.937H46.7162V60.5162C48.3986 60.1814 50.1137 59.8118 51.8587 59.4081V38.5695H42.2431V10.3928C43.5787 9.94759 45.3576 9.50239 47.139 9.05653L47.1627 9.05061V32.7556H52.5295V2.78947Z"/><path fill="#2C5B8D" d="M51.8587 62.4901C50.1242 62.8726 48.4082 63.2101 46.7162 63.5044V75.2446C45.1497 75.021 43.5853 74.5745 42.0195 73.9038V64.2195C40.0354 64.4782 38.094 64.6755 36.2049 64.8141V76.8097C41.5723 79.7171 46.4919 80.6107 51.8587 81.0579V62.4901Z"/><path fill="#2C5B8D" d="M36.2049 62.2052C38.0857 61.9827 40.0257 61.7055 42.0195 61.3747V49.3038H36.2049V62.2052Z"/><path fill="#2C5B8D" fill-rule="evenodd" d="M31.2846 62.6718C29.4228 62.8018 27.6318 62.8703 25.9179 62.876V43.7134H20.3268C20.5504 47.5151 21.669 52.6589 23.6813 56.6842L18.7617 58.6965C11.8291 44.3842 14.0657 22.245 31.2846 10.3928V62.6718ZM25.9179 38.5702V23.8107C22.787 27.3888 20.7747 34.5443 20.3268 38.5702H25.9179Z" clip-rule="evenodd"/><path fill="#2C5B8D" d="M25.9179 64.9782C27.6335 65.0601 29.4261 65.0838 31.2846 65.0465V73.9031C30.606 73.4183 29.8015 72.6815 28.9803 71.9294C27.9067 70.9461 26.8046 69.9367 25.9179 69.43V64.9782Z"/><path fill="#2C5B8D" d="M58.5677 60.8061C60.4686 60.2673 62.334 59.6928 64.158 59.0869V79.4941C62.1451 80.1649 60.3557 80.3885 58.5677 80.6114V60.8061Z"/><path fill="#2C5B8D" d="M64.158 56.0465C62.33 56.6397 60.4642 57.2 58.5677 57.7218V8.60343C57.0019 8.37984 55.4361 8.37984 54.0946 8.37984V3.01306C58.7913 3.01306 63.7096 3.68383 68.6311 5.69678V11.9579C67.5524 11.1877 66.5798 10.842 65.5674 10.4822C65.1102 10.3197 64.6449 10.1543 64.158 9.94562V56.0465Z"/><path fill="#2C5B8D" d="M70.1956 56.9116V77.4812C72.2085 76.5875 74.2215 75.4682 76.0109 74.1273V54.4676C74.1439 55.3129 72.2024 56.13 70.1956 56.9116Z"/><path fill="#2C5B8D" d="M76.0109 51.5341C74.1406 52.359 72.1986 53.1571 70.1956 53.9198V6.36755L81.1527 30.0725L85.6258 19.3383C90.6375 26.4378 92.9681 34.2687 93.0273 41.8978C91.3892 43.1288 89.546 44.368 87.5248 45.5938C87.9053 41.3659 87.5383 37.0926 86.5195 33.2028L81.3776 46.3971L76.0109 33.6499V51.5341Z"/><path fill="#2C5B8D" d="M87.1305 48.5675C86.2606 53.4999 84.3202 58.2287 81.1527 62.0509L84.9551 65.8533C89.6808 59.7309 92.4979 52.2678 92.9606 44.4794C91.2324 45.8535 89.2798 47.2234 87.1305 48.5675Z"/><path fill="#2C5B8D" fill-rule="evenodd" d="M101.727 29.6254C102.845 38.3466 84.0614 51.3167 57.672 58.6971C31.0604 66.0769 7.13248 64.2875 4.67301 55.3426C4.00224 52.8825 3.77799 49.0808 12.7228 43.0433C13.3943 42.5961 13.6179 42.8197 12.9471 43.2662C4.67301 49.0808 4.44876 52.8825 5.34377 55.1184C9.59261 67.4177 47.162 58.9207 57.0013 56.237C81.3777 49.3044 101.726 37.8994 101.056 29.8489C100.832 27.3888 99.7152 24.4815 91.2162 22.9164C90.5454 22.6928 90.5454 22.4692 91.2162 22.6928C100.162 24.0343 101.503 27.1646 101.727 29.6254Z" clip-rule="evenodd"/></g></g></svg>

<svg xmlns="http://www.w3.org/2000/svg" fill="none" aria-hidden="true" viewBox="0 0 106 112"><path fill="#2C5B8D" fill-rule="evenodd" d="M9.817 104.093c.223-1.565-.895-2.237-2.237-2.237-1.118 0-2.236.672-2.236 2.013 0 .895.448 1.342 1.342 1.565h.447c.894.224 1.789.447 1.789 1.341 0 1.119-1.118 1.342-2.012 1.342-1.118 0-1.79-.447-1.79-1.565h-.67c0 1.565 1.117 2.236 2.46 2.236 2.235 0 2.46-1.341 2.46-2.013 0-1.117-.672-1.341-1.566-1.788l-.894-.223c-.448 0-.895-.224-.895-.896 0-1.117.67-1.341 1.565-1.341 1.118 0 1.79.224 1.79 1.566h.447Zm1.34.223h.896l-.671 3.131v.447c0 .671.447.671.894.671h.447l.225-.447h-.672c-.223 0-.447 0-.447-.224 0-.223 0-.223.224-.447l.67-3.131h.895v-.447h-.895l.225-1.341H12.5l-.224 1.341h-.894l-.225.447Zm6.71 1.789c-.223.224-.895.224-1.118.224-.67 0-1.789 0-1.789 1.118 0 .671.447.895.894.895 1.118 0 1.566-.671 1.79-1.566l.223-.671Zm-2.907-.894c.224-.895.894-1.342 2.012-1.342.671 0 1.566.225 1.566.896 0 .447-.224 1.117-.224 1.564-.223 1.119-.223 1.343-.223 1.566 0 .224 0 .224.223.224h.224v.447h-.67c-.224 0-.448 0-.448-.447v-.224c-.223.447-.895.894-1.566.894-.894 0-1.565-.447-1.565-1.34 0-.896.895-1.343 1.79-1.566h1.341c.447-.224.67-.447.67-.895 0-.672-.67-.672-1.117-.672-.67 0-1.342.225-1.342.896h-.671v-.001Zm5.815-1.342h.67l-.223.896c.447-.671.894-.896 1.79-.896.67 0 1.34.225 1.34 1.119v.671l-.67 2.907h-.67l.67-2.907v-.671c0-.447-.447-.672-.895-.672-.894 0-1.565.672-1.789 1.789l-.671 2.46h-.447l.895-4.696Zm6.931 4.473c-.895 0-1.341-.671-1.341-1.566 0-1.117.67-2.46 2.012-2.46.895 0 1.342.448 1.342 1.342 0 1.118-.894 2.684-2.013 2.684Zm3.355-6.262h-.67l-.448 2.684c-.224-.671-.895-.895-1.566-.895-1.566 0-2.683 1.565-2.683 2.907 0 1.118.671 2.013 1.789 2.013.894 0 1.341-.447 1.789-1.117l-.224.894h.67l1.343-6.486Zm3.802 4.696c-.224.896-.671 1.566-1.565 1.566-.671 0-1.118-.224-1.118-.895 0-1.118 1.118-1.118 1.788-1.118.447 0 .895 0 1.118-.224l-.223.671Zm-2.013-1.565c0-.67.67-.895 1.341-.895.447 0 1.118 0 1.118.672 0 .447-.223.671-.671.894h-1.342c-.895.224-1.79.671-1.79 1.566 0 .894.672 1.341 1.566 1.341.671 0 1.341-.447 1.565-.895v.224c0 .447.224.447.672.447h.447v-.447h-.224c-.223 0-.223 0-.223-.224 0-.223 0-.447.223-1.565.224-.448.224-1.118.224-1.565 0-.671-.895-.895-1.565-.895-.895 0-1.79.447-2.013 1.342h.672Zm5.367-1.342h.447l-.223 1.119c.223-.672.895-1.119 1.566-1.119h.447l-.224.447h-.223c-1.118 0-1.566.896-1.79 1.79l-.447 2.46h-.671l1.118-4.697Zm4.696 4.473c-.894 0-1.341-.671-1.341-1.566 0-1.117.671-2.46 2.013-2.46.894 0 1.341.448 1.341 1.342 0 1.118-.671 2.684-2.013 2.684Zm3.355-6.262h-.671l-.448 2.684c-.224-.671-.894-.895-1.565-.895-1.566 0-2.684 1.565-2.684 2.907 0 1.118.671 2.013 1.789 2.013.895 0 1.342-.447 1.79-1.117l-.224.894h.67l1.343-6.486Zm1.118 4.919c0 .896.67 1.343 1.342 1.343.67 0 1.341-.448 1.341-.895 0-.672-.67-.895-1.341-1.118-.672-.224-1.342-.448-1.342-1.341 0-.894 1.117-1.119 1.789-1.119.894 0 1.789.225 1.789 1.342h-.672c0-.67-.447-.895-1.117-.895-.447 0-1.119 0-1.119.672 0 .447.448.671.895.894.671.224 1.566.447 1.566 1.342 0 1.118-.895 1.565-1.79 1.565-.894 0-1.789-.447-1.789-1.79h.448Zm7.38-4.919h.67l.224 5.814 2.908-5.814h.67l.447 5.814 2.684-5.814h.67l-3.13 6.485h-.67l-.448-5.814-2.907 5.814h-.67l-.449-6.485Zm10.286 6.262c-.894 0-1.342-.671-1.342-1.566 0-1.117.672-2.46 2.013-2.46.896 0 1.342.448 1.342 1.342 0 1.118-.67 2.684-2.013 2.684Zm.67-4.473c-1.564 0-2.683 1.342-2.683 2.908 0 1.118.67 2.012 2.013 2.012 1.566 0 2.46-1.564 2.46-3.13 0-1.118-.67-1.79-1.79-1.79Zm4.026 0h.448l-.224 1.119c.447-.672.896-1.119 1.79-1.119h.223v.447h-.447c-.896 0-1.566.896-1.79 1.79l-.447 2.46h-.67l1.117-4.697Zm4.026-1.789h.671l-1.566 6.485h-.447l1.342-6.485Zm3.131 6.262c-.894 0-1.118-.671-1.118-1.566 0-1.117.672-2.46 2.013-2.46.67 0 1.117.448 1.117 1.342 0 1.118-.67 2.684-2.012 2.684Zm3.578-6.262h-.671l-.67 2.684c-.226-.671-.673-.895-1.343-.895-1.788 0-2.684 1.565-2.684 2.907 0 1.118.67 2.013 1.79 2.013.894 0 1.34-.447 1.788-1.117l-.224.894h.447l1.567-6.486Zm.895 1.789h.447l.447 4.025 2.013-4.025h.67l.224 4.025 2.013-4.025h.67l-2.46 4.696h-.67l-.224-3.801-2.012 3.801h-.671l-.447-4.696Zm8.274-.894h.67l.224-.895h-.67l-.224.895Zm-1.119 5.59h.447l1.119-4.696h-.67l-.896 4.696Zm4.472-.223c-.894 0-1.342-.671-1.342-1.566 0-1.117.672-2.46 2.013-2.46.896 0 1.343.448 1.343 1.342 0 1.118-.672 2.684-2.014 2.684Zm3.355-6.262h-.447l-.67 2.684c-.224-.671-.672-.895-1.567-.895-1.564 0-2.46 1.565-2.46 2.907 0 1.118.447 2.013 1.79 2.013.894 0 1.34-.447 1.565-1.117h.224l-.224.894h.448l1.341-6.486Zm1.566 3.802c.223-.894.894-1.566 1.79-1.566.67 0 1.34.449 1.34 1.343v.223h-3.13Zm3.577.447v-.671c0-1.117-.671-1.789-1.788-1.789-1.566 0-2.46 1.342-2.46 2.907 0 1.118.67 2.013 1.788 2.013 1.119 0 2.013-.671 2.237-1.79h-.671c-.224.673-.67 1.343-1.566 1.343-.894 0-1.34-.671-1.34-1.566v-.447h3.8ZM5.791 83.966h2.46l-1.566 8.05h-2.46l1.566-8.05Zm4.026 0h2.46l1.34 4.249h.224l.895-4.25h2.236l-1.565 8.051h-2.46l-1.565-4.471-.895 4.471h-2.46l1.79-8.05Zm10.063 2.013h-2.46l.447-2.013h7.156l-.447 2.013h-2.237l-1.341 6.037h-2.46l1.342-6.037Zm6.038-2.013h6.932l-.447 2.013h-4.25l-.223.895h3.802l-.224 2.011h-4.025l-.224 1.12h4.25l-.448 2.011h-6.709l1.566-8.05Zm10.286 1.79h1.342c.671 0 .895.446.895.67 0 .672-.447.896-1.342.896h-1.118l.223-1.567Zm-3.801 6.26h2.46l.67-2.906h1.118c.671 0 .895.448.895.671v2.235h2.46c-.223-.447-.223-1.34-.223-2.011 0-.895 0-1.566-.67-1.79 1.117-.223 1.788-1.117 1.788-2.236 0-1.788-1.118-2.013-2.683-2.013h-4.025l-1.79 8.05Zm10.287-8.05h2.46l1.565 4.249.894-4.25h2.46l-1.789 8.051h-2.46l-1.565-4.471-.895 4.471H40.9l1.79-8.05ZM53.2 89.11h1.565l-.447-2.461L53.2 89.11Zm.447-5.144h2.46l1.341 8.05h-2.46l-.223-1.117h-2.46l-.67 1.117H48.95l4.696-8.05Zm6.934 2.013h-2.462l.449-2.013h7.154l-.446 2.013h-2.237l-1.341 6.037h-2.46l1.343-6.037Zm6.037-2.013h2.683l-1.79 8.05h-2.459l1.566-8.05Zm5.367 4.696c0-1.117.447-2.907 2.013-2.907.894 0 1.34.67 1.34 1.342 0 1.34-.67 3.13-2.012 3.13-1.117 0-1.341-.893-1.341-1.565Zm-2.46 0c0 2.236 1.342 3.579 3.577 3.579 2.908 0 4.697-2.237 4.697-4.92 0-2.46-1.341-3.58-3.801-3.58-2.684.001-4.473 2.238-4.473 4.92Zm10.287-4.696h2.46l1.564 4.249.896-4.25h2.237l-1.567 8.051h-2.46l-1.564-4.471-.895 4.471h-2.46l1.789-8.05Zm11.628 2.683.223 2.461H90.1l1.34-2.461Zm-5.367 5.367h2.46l.67-1.117h2.685l.224 1.117h2.46l-1.341-8.05h-2.46l-4.698 8.05Zm10.734-8.05h2.683l-1.34 6.039h3.577l-.447 2.011h-6.038l1.565-8.05Z" clip-rule="evenodd"/><path fill="#2C5B8D" d="M4.45 79.494h97.053Zm0 15.654h97.053ZM52.53 2.79c-5.815.223-11.853 2.46-16.326 4.472v36.675h10.512v16.58a173.45 173.45 0 0 0 5.143-1.109V38.569h-9.616V10.393c1.336-.445 3.114-.89 4.896-1.336l.024-.006v23.705h5.367V2.789Zm-.671 59.7c-1.735.383-3.45.72-5.143 1.014v11.74a18.559 18.559 0 0 1-4.697-1.34V64.22c-1.984.258-3.925.456-5.814.594V76.81c5.367 2.907 10.287 3.8 15.654 4.248V62.49Z"/><path fill="#2C5B8D" d="M36.205 62.205c1.88-.222 3.82-.5 5.815-.83V49.304h-5.815v12.901Z"/><path fill="#2C5B8D" fill-rule="evenodd" d="M31.285 62.672c-1.862.13-3.653.198-5.367.204V43.713h-5.591c.223 3.802 1.342 8.946 3.354 12.971l-4.92 2.012c-6.932-14.312-4.695-36.451 12.524-48.303v52.279ZM25.918 38.57V23.81c-3.131 3.579-5.143 10.734-5.591 14.76h5.59Z" clip-rule="evenodd"/><path fill="#2C5B8D" d="M25.918 64.978a79.47 79.47 0 0 0 5.367.069v8.856c-.679-.485-1.483-1.222-2.305-1.974-1.073-.983-2.175-1.992-3.062-2.499v-4.452Zm32.65-4.172a131.57 131.57 0 0 0 5.59-1.72v20.408c-2.013.67-3.802.894-5.59 1.117V60.806Zm5.59-4.759a129.177 129.177 0 0 1-5.59 1.675V8.603c-1.566-.223-3.132-.223-4.473-.223V3.013c4.696 0 9.614.67 14.536 2.684v6.26c-1.079-.77-2.051-1.115-3.064-1.475a23.427 23.427 0 0 1-1.409-.536v46.1Zm6.038.865v20.57c2.013-.894 4.026-2.014 5.815-3.355v-19.66a117.45 117.45 0 0 1-5.815 2.445Zm5.814-5.378a122.07 122.07 0 0 1-5.814 2.386V6.368l10.957 23.705 4.473-10.735c5.011 7.1 7.342 14.93 7.401 22.56a67.167 67.167 0 0 1-5.502 3.696c.38-4.228.013-8.501-1.006-12.391l-5.141 13.194L76.01 33.65v17.884Zm11.12-2.966c-.87 4.932-2.81 9.66-5.977 13.483l3.802 3.802a38.8 38.8 0 0 0 8.006-21.374 63.78 63.78 0 0 1-5.83 4.089Z"/><path fill="#2C5B8D" fill-rule="evenodd" d="M101.727 29.625c1.118 8.722-17.666 21.692-44.055 29.072-26.612 7.38-50.54 5.59-52.999-3.354-.67-2.46-.895-6.262 8.05-12.3.671-.447.895-.223.224.223-8.274 5.815-8.498 9.617-7.603 11.852 4.249 12.3 41.818 3.803 51.657 1.119 24.377-6.933 44.725-18.338 44.055-26.388-.224-2.46-1.34-5.367-9.84-6.933-.67-.223-.67-.447 0-.223 8.946 1.341 10.287 4.471 10.511 6.932Z" clip-rule="evenodd"/></svg>
